Sources/FrostedUI/Resources/Icons.xcassets/plus20.imageset/plus-20.svg

<svg width="20" height="20" viewBox="0 0 20 20" fill="none" xmlns="http://www.w3.org/2000/svg" data-fui-icon="true">
  <path
    d="M10 1C10.4142 1 10.75 1.33579 10.75 1.75V9.25H18.25C18.6642 9.25 19 9.58579 19 10C19 10.4142 18.6642 10.75 18.25 10.75H10.75V18.25C10.75 18.6642 10.4142 19 10 19C9.58579 19 9.25 18.6642 9.25 18.25V10.75H1.75C1.33579 10.75 1 10.4142 1 10C1 9.58579 1.33579 9.25 1.75 9.25H9.25V1.75C9.25 1.33579 9.58579 1 10 1Z"
    fill="currentColor"
  />
</svg>

<svg xmlns="http://www.w3.org/2000/svg" width="20" height="20" fill="none" data-fui-icon="true" viewBox="0 0 20 20"><path fill="currentColor" d="M10 1a.75.75 0 0 1 .75.75v7.5h7.5a.75.75 0 0 1 0 1.5h-7.5v7.5a.75.75 0 0 1-1.5 0v-7.5h-7.5a.75.75 0 0 1 0-1.5h7.5v-7.5A.75.75 0 0 1 10 1"/></svg>
